src/assets/icons/tasks-projects-goals,fancy,target-goal.svg

<svg width="48" height="48" viewBox="0 0 48 48" fill="none" xmlns="http://www.w3.org/2000/svg">
<path d="M24 24L43 5" stroke="black" stroke-width="4" stroke-linecap="round"/>
<path opacity="0.8" d="M34.7315 8.31832C31.678 6.22461 27.9821 4.99961 24 4.99961C13.5066 4.99961 5 13.5062 5 23.9996C5 34.493 13.5066 42.9996 24 42.9996C34.4934 42.9996 43 34.493 43 23.9996C43 20.0175 41.775 16.3216 39.6813 13.2681L37.5161 15.4333C39.089 17.91 40 20.8484 40 23.9996C40 32.8362 32.8366 39.9996 24 39.9996C15.1634 39.9996 8 32.8362 8 23.9996C8 15.163 15.1634 7.99961 24 7.99961C27.1512 7.99961 30.0896 8.91058 32.5663 10.4836L34.7315 8.31832Z" fill="black"/>
<path d="M30.3798 12.6705C28.4951 11.6069 26.3184 11 24 11C16.8203 11 11 16.8203 11 24C11 31.1797 16.8203 37 24 37C31.1797 37 37 31.1797 37 24C37 21.6816 36.3931 19.5049 35.3295 17.6202L33.1005 19.8492C33.6781 21.1135 34 22.5192 34 24C34 29.5229 29.5229 34 24 34C18.4772 34 14 29.5229 14 24C14 18.4772 18.4772 14 24 14C25.4808 14 26.8865 14.3219 28.1508 14.8995L30.3798 12.6705Z" fill="black"/>
<path d="M25.8132 17.2371C25.2349 17.0824 24.6271 17 24 17C20.134 17 17 20.134 17 24C17 27.866 20.134 31 24 31C27.866 31 31 27.866 31 24C31 23.3729 30.9175 22.7651 30.7629 22.1868L27.8457 25.1041C27.3665 26.7762 25.8262 28 24 28C21.7909 28 20 26.2091 20 24C20 22.1738 21.2238 20.6335 22.8959 20.1543L25.8132 17.2371Z" fill="black"/>
</svg>

<svg xmlns="http://www.w3.org/2000/svg" width="48" height="48" fill="none" viewBox="0 0 48 48">
  <path stroke="#000" stroke-linecap="round" stroke-width="4" d="M24 24L43 5"/>
  <path fill="#000" d="M34.731 8.318A18.912 18.912 0 0024 5C13.507 5 5 13.506 5 24c0 10.493 8.507 19 19 19s19-8.507 19-19c0-3.983-1.225-7.678-3.319-10.732l-2.165 2.165A15.926 15.926 0 0140 24c0 8.836-7.163 16-16 16S8 32.836 8 24c0-8.837 7.163-16 16-16 3.151 0 6.09.91 8.566 2.484l2.165-2.166z" opacity=".8"/>
  <path fill="#000" d="M30.38 12.67A12.94 12.94 0 0024 11c-7.18 0-13 5.82-13 13s5.82 13 13 13 13-5.82 13-13a12.94 12.94 0 00-1.67-6.38l-2.23 2.23c.578 1.263.9 2.67.9 4.15 0 5.523-4.477 10-10 10s-10-4.477-10-10 4.477-10 10-10c1.48 0 2.887.322 4.15.9l2.23-2.23z"/>
  <path fill="#000" d="M25.813 17.237a7 7 0 104.95 4.95l-2.917 2.917A4.002 4.002 0 0120 24a4.002 4.002 0 012.896-3.846l2.917-2.917z"/>
</svg>
